X: 6097
T: Captain Campbell
R: strathspey
M: 4/4
K: Aminor
|:E<AA>B c2 B<A|D<GG>A B2 c/B/A/G/|
E<AA>B c>Bc<e|d<Bg<B A2 A2:|
|:A<aa>g e2 c<e|d>eg>e d/c/B/A/ G2|
[1 A<aa>g e>dc<e|d<Bg<B A2 A2:|
[2 c<Ad<B e>dc<e|d<Bg<B A2 A2||

